!!!!SEGMENT: pl-kk--kk-i-363--002_anonim--pro-festis-sub-tuum-praesidium.krn
!!!cenid: 17xx:1964
!!!COM: Anonim
!!!COM-rismID:
!!!CDT:
!!!CNT:
!!!OPR: Pro festis
!!!OTL: Sub tuum praesidium
!!!OMV: 002
!!!PDT:
!!!AGN: Sacred
!!!SMS-siglum: PL-Kk
!!!SMS-shelfmark: Kk.I.363
!!!SMS-shelfwork: 001-002 M
!!!SMS-variant:
!!!SMS-altvar:
!!!NIFC-rismSourceID: 1001144503
!!!NIFC-islandoraID: pl-kk:5993
!!!URL-pdf-islandora: https://repozytorium.nifc.pl/islandora/object/pl-kk%3A5993/datastream/PDF/view
!!!URL-scan: https://polish.musicsources.pl/pl/lokalizacje/galeria/rekopisy/5978 @EN{Scan on Polish Music Herritage in Open Access Website} @PL{Skany w portalu Dziedzictwo Muzyki Polskiej w otwartym dostępie}
!!!ONB-nifc: UWAGA: części: 1. Conceptio tua, 2. Sub tuum praesidium, 3. Tradent enim vos
!!!AIN: 1 bass
!!!key:
**kern	**text
*Ibass	*
*I"Basso	*
*I'B.	*
*clefF4	*
*k[]	*
*G:	*
*M2/2	*
*met(c|)	*
=1-	=1-
!LO:TX:a:t=P:problem=kreska pseudotaktowa	!
00r	.
=2-	=2-
.	.
=3-	=3-
1AA	Sub
!LO:TX:a:t=P:problem=kreska pseudotaktowa	!
1C#X	Tu-
=4-	=4-
1D,<	-um
!LO:TX:a:t=P:problem=kreska pseudotaktowa	!
1E	prae-
=5-	=5-
(4F#X\	-si-
4E\	.
4D\)	.
8E\L	.
8F#\J	.
*2\right	*
2G\	.
!LO:TX:a:t=P:problem=kreska pseudotaktowa	!
[<2GG/	.
=6-	=6-
!LO:N:xstem:cue	!
4GG/]	.
4AA/	.
4BBn/	.
!LO:TX:a:t=P:problem=kreska pseudotaktowa	!
4Cny/	.
4D\	.
4E\	-di-
4F#X,<\	-um
!LO:TX:a:t=P:problem=kreska pseudotaktowa	!
4D\	con-
=7-	=7-
2A\	-fu-
2AA/	-gi-
!LO:TX:a:t=P:problem=kreska pseudotaktowa	!
1D,<	-m(us)
=8-	=8-
(4AA/	San-
4BB/	.
4Cn/	.
*custos:E	*
!LO:TX:a:t=P:problem=kreska pseudotaktowa	!
4D/)	.
!LO:LB:g=original	!
4E\	.
4Fny\	.
!LO:TX:a:t=P:problem=kreska pseudotaktowa	!
2G\	.
=9-	=9-
4D/	.
4C/	.
4BB/	.
!LO:TX:a:t=P:problem=kreska pseudotaktowa	!
4AA/	.
2GG/	.
!LO:TX:a:t=P:problem=kreska pseudotaktowa	!
2AA/	-cta
=10-	=10-
1.D	De-
2C/	-i
=11-	=11-
1BBn	Ge-
2.AA/	.
4AA/	-ni-
=12-	=12-
!LO:TX:a:t=P:problem=kreska pseudotaktowa	!
1D,<	-trix,
2r	.
!LO:TX:a:t=P:problem=kreska pseudotaktowa	!
2D\	nos-
=13-	=13-
2GG,</	-tras
1G	de-
!LO:TX:a:t=P:problem=kreska pseudotaktowa	!
2F#X\	-pre-
=14-	=14-
4G\	-ca-
4Fn\	.
4E\	.
!LO:TX:a:t=P:problem=kreska pseudotaktowa	!
4D\	.
2C/	.
!LO:TX:a:t=P:problem=kreska pseudotaktowa	!
2D/	-ti-
=15-	=15-
2G\	-o-
*custos:GG	*
!LO:TX:a:t=P:problem=kreska pseudotaktowa	!
[<2GG/	.
!LO:LB:g=original	!
!LO:TX:a:t=P:problem=brak zakończenia ligatury	!
!LO:N:xstem	!
4GG/]	.
4AA/	.
4BB/	.
!LO:TX:a:t=P:problem=kreska pseudotaktowa	!
4C/	.
=16-	=16-
2D/	.
2C/	.
!LO:TX:a:t=P:problem=kreska pseudotaktowa	!
1D	.
=17-	=17-
2GG,</	-nes
1G	ne
!LO:TX:a:t=P:problem=kreska pseudotaktowa	!
2F#X\	deſ-
=18-	=18-
(4G\	-pi-
4F\	.
4En\	.
!LO:TX:a:t=P:problem=kreska pseudotaktowa	!
4D\)	.
(4C/	.
4D/)	.
!LO:TX:a:t=P:problem=kreska pseudotaktowa	!
2E\	.
=19-	=19-
2.D/	.
!LO:TX:a:t=P:problem=kreska pseudotaktowa	!
4D/	-ci-
2GG,</	-as
1G	in
=20-	=20-
.	.
!LO:TX:a:t=P:problem=kreska pseudotaktowa	!
2F#X\	ne-
1En	-ceſ-
=21-	=21-
2D/	-si-
2.D/	-ta-
4D/	-ti-
*custos:D	*
!LO:TX:a:t=P:problem=kreska pseudotaktowa	!
2C#X,</	-bus
!LO:LB:g=original	!
=22-	=22-
(4D/	no-
4C/	.
4BB/)	.
!LO:TX:a:t=P:problem=kreska pseudotaktowa	!
4AA/	.
2GG/	.
2AA/	.
=23-	=23-
*lig	*
0BBn	.
=24-	=24-
0AA	.
*Xlig	*
=25-	=25-
!LO:TX:a:t=P:problem=kreska pseudotaktowa	!
1D,<	-stris.
!LO:TX:a:t=1.	!
1rA	.
=26-	=26-
2r	.
!LO:TX:a:t=P:problem=kreska pseudotaktowa	!
2E\	Sed
!LO:TX:a:t=P:problem=kreska pseudotaktowa	!
1C	à
=27-	=27-
1En	pe-
2.BBn/	-ri-
!LO:TX:a:t=P:problem=kreska pseudotaktowa	!
4BB/	-cu-
=28-	=28-
2C,</	-lis
(4C/	cun-
!LO:TX:a:t=P:problem=kreska pseudotaktowa	!
4D/)	.
4E\	.
!LO:TX:t=P:problem=# above	!
4F#X\	.
1G	.
=29-	=29-
.	.
4F#X\	.
!LO:TX:a:t=P:problem=kreska pseudotaktowa	!
4E\	.
1F#X	.
=30-	=30-
!LO:TX:a:t=P:problem=kreska pseudotaktowa	!
1G,<	-ctis
!LO:LB:g=original	!
1.D	li-
=31-	=31-
.	.
2D\	-be-
!LO:TX:a:t=P:problem=kreska pseudotaktowa	!
1E	-ra
=32-	=32-
2.D/	nos
4C,</	.
*	*ij
2.BB/	li-
4BB/	-be-
=33-	=33-
2C/	-ra
!LO:TX:a:t=P:problem=kreska pseudotaktowa	!
2D\	nos
*	*Xij
1E	sem-
=34-	=34-
2.D/	.
!LO:TX:a:t=P:problem=kreska pseudotaktowa	!
4C/	.
4BB/	.
4GG/	.
1G	.
=35-	=35-
.	.
2F#X\	.
!LO:TX:a:t=P:problem=kreska pseudotaktowa	!
1G,<	-per
=36-	=36-
1.C	Vir-
!LO:TX:a:t=P:problem=kreska pseudotaktowa	!
2BB/	-go
=37-	=37-
1C	glo-
1D	-ri-
=38-	=38-
2.E\	-o-
4D/	.
2.C/	.
!LO:TX:a:t=P:problem=kreska pseudotaktowa	!
4BB/	.
=39-	=39-
2AA/	.
2GG/	.
2.FFn/	.
!LO:TX:a:t=P:problem=kreska pseudotaktowa	!
4GG/	.
=40-	=40-
*custos:BB-	*
1AA	.
!LO:PB:g=original	!
2BB-X,</	-sa
!LO:TX:a:t=P:problem=kreska pseudotaktowa	!
2BB-/	et
=41-	=41-
2G\	be-
!LO:TX:a:t=P:problem=kreska pseudotaktowa	!
2F#X\	-ne-
1.G	-di-
=42-	=42-
.	.
2GG/	.
0D;	cta
=43||	=43||
*M3/2	*
2.G\	Do-
4G\	-mi-
!LO:TX:a:t=P:problem=kreska pseudotaktowa	!
2G\	-na
=44-	=44-
*	*ij
2.Bn\	Do-
4B\	-mi-
!LO:TX:a:t=P:problem=kreska pseudotaktowa	!
2B\	-na
*	*Xij
=45-	=45-
2.c\	D(o-
4c\	-mi)-
!LO:TX:a:t=P:problem=kreska pseudotaktowa	!
2B\	-na
=46-	=46-
1A	no-
!LO:TX:a:t=P:problem=kreska pseudotaktowa	!
2G,<\	-stra
=47-	=47-
2.F#X\	Me-
4F#\	-di-
!LO:TX:a:t=P:problem=kreska pseudotaktowa	!
2G\	-a-
=48-	=48-
2E\	-trix
*custos:BB	*
!LO:TX:a:t=P:problem=kreska pseudotaktowa	!
1F#X	no-
!LO:LB:g=original	!
=49-	=49-
2BB,</	-stra
2B\	ad-
!LO:TX:a:t=P:problem=kreska pseudotaktowa	!
2A\	-vo-
=50-	=50-
1G	-ca-
!LO:TX:a:t=P:problem=kreska pseudotaktowa	!
2c\	-ta
=51-	=51-
2A\	no-
2B\	.
!LO:TX:a:t=P:problem=kreska pseudotaktowa	!
2BB/	.
=52-	=52-
!LO:TX:a:t=P:problem=kreska pseudotaktowa	!
2E,<\	-stra
!LO:TX:a:t=P:problem=pauza po C|	!
2r	.
2ryy	.
=53||-	=53||-
*M2/1	*
*met(c|)	*
2r	.
1G	Tu-
!LO:TX:a:t=P:problem=kreska pseudotaktowa	!
2E\	-o
=54-	=54-
2.A\	Fi-
4G\	-li-
(4F#X\	-o
4E\	.
!LO:TX:a:t=P:problem=kreska pseudotaktowa	!
2F#)\	.
=55-	=55-
2G,<\	nos
4.G\	re-
!LO:TX:a:t=P:problem=kreska pseudotaktowa	!
8Fny\	-con-
4E\	-ci-
4F\	.
2.G\	.
=56-	=56-
.	.
8F#X\L	.
8E\J	.
!LO:TX:a:t=P:problem=kreska pseudotaktowa	!
2F#\	-li-
!LO:TX:a:t=P:problem=kreska pseudotaktowa	!
1G	-a
=57-	=57-
!LO:TX:a:t=P:problem=kreska pseudotaktowa	!
0r	.
!LO:LB:g=original	!
=58-	=58-
1.G	Tu-
!LO:TX:a:t=P:problem=kreska pseudotaktowa	!
2E\	-o
=59-	=59-
2.A\	Fi-
4G\	-li-
(4F#X\	-o
4E\	.
!LO:TX:a:t=P:problem=kreska pseudotaktowa	!
2F#)\	.
=60-	=60-
2G\	nos
4G\	re-
!LO:TX:a:t=P:problem=kreska pseudotaktowa	!
4Fn\	-prae-
4E\	-sen-
4D\	.
4C/	.
!LO:TX:a:t=P:problem=kreska pseudotaktowa	!
4BB/	.
=61-	=61-
2AA/	.
2BB/	.
2.C/	.
8BB/L	.
!LO:TX:a:t=P:problem=kreska pseudotaktowa	!
8AA/J	.
=62-	=62-
(4GG/	.
4AA/	.
4BB/	.
!LO:TX:a:t=P:problem=kreska pseudotaktowa	!
4C/)	.
4D/	.
4AA/	.
1D	.
=63-	=63-
.	.
!LO:TX:a:t=P:problem=kreska pseudotaktowa	!
2C#X,</	-ta
2D\	re-
2D\	-prae-
=64-	=64-
(1A	-sen-
!LO:TX:a:t=P:problem=kreska pseudotaktowa	!
1AA)	.
=65-	=65-
!LO:TX:a:t=P:problem=kreska pseudotaktowa	!
1D	ta
*	*ij
(4GG/	re-
4AA/)	.
(4BB-X/	-prae-
!LO:TX:a:t=P:problem=kreska pseudotaktowa	!
4GG/)	.
=66-	=66-
!LO:TX:a:t=P:problem=kreska pseudotaktowa	!
1D	-sen-
!LO:TX:a:t=P:problem=kreska pseudotaktowa	!
1D,<	-ta
*	*Xij
!LO:LB:g=original	!
=67-	=67-
(4BB-X/	re-
4C/)	.
(4D/	-prae-
!LO:TX:a:t=P:problem=kreska pseudotaktowa	!
4BB-/)	.
1F	-sen-
=68-	=68-
2FF,</	-ta
1F	re-
!LO:TX:a:t=P:problem=kreska pseudotaktowa	!
2En\	-prae-
=69-	=69-
*lig	*
0D	-sen-
=70-	=70-
0C	.
=71-	=71-
!LO:TX:a:t=P:problem=kreska pseudotaktowa	!
0D	.
*Xlig	*
=72-	=72-
2GG/	.
1G	.
!LO:TX:a:t=P:problem=kreska pseudotaktowa	!
2D\	.
=73-	=73-
0G	.
=74-	=74-
!LO:TX:b:B:t=Pro Ss. Apoſtolis.	!
0D;	-ta.
==	==
*-	*-
!!!RDF**kern: < = below
!!!ENC: Marta Lawrence
!!!END: 2021-02-23
!!!ENC: Marcin Jachim
!!!END: 2021-02-06
